X:1
T:My Light and Song
T:My Light and Song
T:William James Kirkpatrick
T:Emma Mansfield Johnston, 1888
T:Public Domain Courtesy of the Cyber Hymnal™
T:Public Domain Courtesy of the Cyber Hymnal™
C:William James Kirkpatrick
Z:Public Domain
Z:Courtesy of the Cyber Hymnal™
%%score ( 1 2 ) ( 3 4 )
L:1/8
Q:1/4=100
M:4/4
K:Ab
V:1 treble 
V:2 treble 
V:3 bass 
V:4 bass 
V:1
 [CA]3 [DB] [CA]>E C>E | [CA]2 [EB]2 [Ec]4 | [EB]>[EB] [EB]>[EB] [Ge]2 [Gd]2 | [Ec]6 z2 | %4
w: 1.~Why should life a wea- ry|jour- ney seem?|Je- sus is my light and|song!|
w: 2.~What tho’ foes at ev- ery|step I meet?|Je- sus is my light and|song!|
w: 3.~When I come to Jor- dan’s|roll- ing tide,|Je- sus is my light and|song!|
 [CA]3 [DB] [CA]>E C>E | [CA]2 [EB]2 [Ec]4 | [EB]>[EB] [EB]>[EB] [Ge]2 [EG]2 | [EA]6 z2 | %8
w: Why should I my cross a|bur- den deem?|Je- sus is my light and|song!|
w: What tho’ snares are rea- dy|for my feet?|Je- sus is my light and|song!|
w: When the waves like mount- ains|o- ver- ride,|Je- sus is my light and|song!|
 [DF]2 [Fd]2 [Fd]3 [FB] | [EA]>[EG] [EA]>[GB] [Ac]4 | [GB]2 [Ge]2 [Ge]3 [EG] | %11
w: All my way is|marked by love di- vine;|Round my cross the|
w: He was first of|all to tread the way,|He was first to|
w: Thro’ the flood His|form shall still be near,|Thro’ the tide His|
 [=DB]>[DA] [DG]>[DF] (z2 _D2) x2 | [CE]2 [CA]2 [Ec]3 [EA] | [DF]>[D=E] [DF]>[FA] [Fd]4 | %14
w: rays of glo- ry *|* shine; Christ Him-|self com- pan- ion is|
w: bat- tle in the *|* fray; Now on|Him my ev- ery hope|
w: voice shall sweet- ly *|* cheer; I shall|Jor- dan breast with- out|
 [Ec]>[DB] [CA]>[Ec] [DB]2 [EG]2 | [EA]6 z2 ||"^Refrain" [DF]>[D=E] [DF]>[FA] ([Fd]2 (3AGF) | %17
w: of mine— Je- sus is my|light|and song! * * * * * *|
w: I stay— Je- sus is my|light|and song! Je- sus is * * *|
w: a fear— Je- sus is my|light|and song! * * * * * *|
 [CE]>[=B,=D] [CE]>[CA] ([Ec]2 (3A_Bc) | [GB]>[GB] [GB]>[GB] [Ac]2 [A=d]2 | e6 !fermata!z2 | %20
w: |||
w: my light, Je- sus is * * *|my light, Je- sus is my|light|
w: |||
 [CE]>[=B,=D] [CE]>[CA] ([Ec]2 (3_BAG) | [DF]>[D=E] [DF]>[FA] ([Fd]2 (3Bcd) | %22
w: ||
w: and song; Je- sus is * * *|my light, Je- sus is * * *|
w: ||
 [Ec]>[DB] [CA]>[Ec] [DB]2 [DG]2 | A8 |] %24
w: ||
w: my light, Je- sus is my|light|
w: ||
V:2
 x11/2 E/ C>E | x8 | x8 | x8 | x11/2 E/ C>E | x8 | x8 | x8 | x8 | x8 | x8 | x4 E4 x2 | x8 | x8 | %14
 x8 | x8 || x8 | x8 | x8 | (G2 A2 G2) x2 | x8 | x8 | x8 | (C2 D2 C2) x2 |] %24
V:3
 [A,,E,]3 [A,,E,] [A,,E,]>E, C,>E, | [A,,E,]2 [E,G,]2 [A,,A,]4 | %2
 [E,G,]>[E,G,] [E,G,]>[E,G,] [E,B,]2 [E,B,]2 | A,6 z2 | [A,,E,]3 [A,,E,] [A,,E,]>E, C,>E, | %5
 [A,,E,]2 [E,G,]2 [A,,A,]4 | [E,G,]>[E,G,] [E,G,]>[E,G,] [E,B,]2 [E,D]2 | [A,,A,C]6 z2 | %8
 [D,A,]2 [D,A,]2 [D,A,]3 [D,D] | [E,C]>[E,B,] [E,C]>[E,E] [A,E]4 | [E,E]2 [E,B,]2 [E,B,]3 [E,B,] | %11
 [B,,B,]>[B,,B,] [B,,B,]>[B,,B,] G,2 x4 | [A,,A,]2 [A,,E,]2 [A,,A,]3 [C,A,] | %13
 [D,A,]>[D,G,] [D,A,]>[D,A,] [D,A,]4 | [E,A,]>[E,A,] [E,A,]>[E,A,] [E,G,]2 [E,D]2 | [A,,A,C]6 z2 || %16
 [D,A,]>[D,A,] [D,A,]>[D,A,] [D,A,]2 z2 | [A,,A,]>[A,,A,] [A,,A,]>[A,,A,] [A,,A,]2 z2 | %18
 [E,B,]>[E,B,] [E,E]>[E,E] [A,E]2 [F,B,]2 | (B,2 C2 D2) z2 | %20
 [A,,A,]>[A,,A,] [A,,A,]>[A,,A,] [A,,A,]2 z2 | [D,A,]>[D,A,] [D,A,]>[D,A,] [D,A,]2 z2 | %22
 [E,A,]>[E,A,] [E,A,]>[E,A,] [E,G,]2 [E,B,]2 | (A,2 F,2 E,2) x2 |] %24
V:4
 x11/2 E,/ C,>E, | x8 | x8 | A,6 x2 | x11/2 E,/ C,>E, | x8 | x8 | x8 | x8 | x8 | x8 | x4 E,4 B,2 | %12
 x8 | x8 | x8 | x8 || x8 | x8 | x8 | E,6 x2 | x8 | x8 | x8 | A,,8 |] %24

